icons/light-bulb-16.svg

<svg xmlns="http://www.w3.org/2000/svg" width="16" height="16" viewBox="0 0 16 16"><path d="M8 1.5c-2.363 0-4 1.69-4 3.75 0 .984.424 1.625.984 2.304l.214.253c.223.264.47.556.673.848.284.411.537.896.621 1.49a.75.75 0 01-1.484.211c-.04-.282-.163-.547-.37-.847a8.456 8.456 0 00-.542-.68c-.084-.1-.173-.205-.268-.32C3.201 7.75 2.5 6.766 2.5 5.25 2.5 2.31 4.863 0 8 0s5.5 2.31 5.5 5.25c0 1.516-.701 2.5-1.328 3.259-.095.115-.184.22-.268.319-.207.245-.383.453-.541.681-.208.3-.33.565-.37.847a.751.751 0 01-1.485-.212c.084-.593.337-1.078.621-1.489.203-.292.45-.584.673-.848.075-.088.147-.173.213-.253.561-.679.985-1.32.985-2.304 0-2.06-1.637-3.75-4-3.75zM5.75 12h4.5a.75.75 0 010 1.5h-4.5a.75.75 0 010-1.5zM6 15.25a.75.75 0 01.75-.75h2.5a.75.75 0 010 1.5h-2.5a.75.75 0 01-.75-.75z"/></svg>

<svg xmlns="http://www.w3.org/2000/svg" width="16" height="16" viewBox="0 0 16 16">
  <defs/>
  <path d="M8,1.5 C5.637,1.5 4,3.19 4,5.25 C4,6.234 4.424,6.875 4.984,7.554 L5.198,7.807 C5.421,8.071 5.668,8.363 5.871,8.655 C6.155,9.066 6.408,9.551 6.492,10.145 C6.534,10.546 6.251,10.908 5.852,10.965 C5.452,11.022 5.08,10.753 5.008,10.356 C4.968,10.074 4.845,9.809 4.638,9.509 C4.469,9.273 4.288,9.046 4.096,8.829 C4.012,8.729 3.923,8.624 3.828,8.509 C3.201,7.75 2.5,6.766 2.5,5.25 C2.5,2.31 4.863,0 8,0 C11.137,0 13.5,2.31 13.5,5.25 C13.5,6.766 12.799,7.75 12.172,8.509 C12.077,8.624 11.988,8.729 11.904,8.828 C11.697,9.073 11.521,9.281 11.363,9.509 C11.155,9.809 11.033,10.074 10.993,10.356 C10.934,10.766 10.555,11.051 10.144,10.993 C9.734,10.934 9.449,10.554 9.508,10.144 C9.592,9.551 9.845,9.066 10.129,8.655 C10.332,8.363 10.579,8.071 10.802,7.807 C10.877,7.719 10.949,7.634 11.015,7.554 C11.576,6.875 12,6.234 12,5.25 C12,3.19 10.363,1.5 8,1.5 Z M5.75,12 L10.25,12 C10.664,12 11,12.336 11,12.75 C11,13.164 10.664,13.5 10.25,13.5 L5.75,13.5 C5.336,13.5 5,13.164 5,12.75 C5,12.336 5.336,12 5.75,12 Z M6,15.25 C6,14.836 6.336,14.5 6.75,14.5 L9.25,14.5 C9.664,14.5 10,14.836 10,15.25 C10,15.664 9.664,16 9.25,16 L6.75,16 C6.336,16 6,15.664 6,15.25 Z"/>
</svg>
